X: 1
T: Bourr\'ee \`a Chabrier
R: bourree 3
S: Qu\'ebec City workshop, from Betsy Hooper
M: 3/8
L: 1/16
K: G
AB |\
A2 GF E2 | D4 G2 | FG AB c2 | BA G2 AB |\
A2 GF E2 | D4 G2 | FG AB A2 | G4 :|
|: G2 |\
A2 d2 c2 | d4 cB | AB cd cB | A4 G2 |\
A2 d2 c2 | d4 cB | AB c2 BA | G4 :|
